X: 4432
T: Bonnie Charlie
R: hornpipe
M: 4/4
K: Dminor
D3EF2FG|ABGB A2GB|A2D2D3F|EFEC A,2A,C|
D3EF2FG|ABGB A2GB|A2D2FED^C|1 D6 AF|2 D6 Ac||
dedc A3c|dedc A3f|efge c3f|efge c2fg|
a2fa g2eg|f2df e2^ce|d3e fedc|A2 d2 d2 A2|
dedc A2A2|f2f2 A3c|BAGF GFED|EFGE C2EF|
D3EF2FG|ABGB A2GB|A2D2FED^C|D8||

